img/Thumb-dislike.svg

<svg width="15" height="13" viewBox="0 0 15 13" fill="none" xmlns="http://www.w3.org/2000/svg">
<path fill-rule="evenodd" clip-rule="evenodd" d="M13.5 0.249994C13.9142 0.249994 14.25 0.58578 14.25 0.999994V7.74999C14.25 8.16421 13.9142 8.49999 13.5 8.49999H12.75C12.3358 8.49999 12 8.16421 12 7.74999V0.999994C12 0.58578 12.3358 0.249994 12.75 0.249994H13.5ZM1.97727 8.79061C1.30227 8.79061 0.75 8.19934 0.75 7.47669C0.759695 6.47238 0.783758 5.91845 0.822192 5.81492C0.860626 5.71139 1.49111 4.1192 2.71364 1.03836C2.89773 0.57848 4.40981 0.249994 4.90072 0.249994H9.21C9.885 0.249994 10.875 0.841267 10.875 1.56394V8.49999L6.80457 12.7121L6.80226 12.7144C6.44071 13.0859 5.84646 13.094 5.47498 12.7324C5.35227 12.5353 5.22955 12.2726 5.22955 12.0098C5.22955 11.9441 5.22955 11.8784 5.22955 11.8127L5.84318 8.79061H1.97727Z" fill="#BCBFC2"/>
</svg>

<svg width="15" height="13" fill="none" xmlns="http://www.w3.org/2000/svg"><path fill-rule="evenodd" clip-rule="evenodd" d="M13.5.25a.75.75 0 0 1 .75.75v6.75a.75.75 0 0 1-.75.75h-.75a.75.75 0 0 1-.75-.75V1a.75.75 0 0 1 .75-.75h.75ZM1.977 8.79C1.302 8.79.75 8.2.75 7.478c.01-1.005.034-1.559.072-1.662.039-.104.67-1.696 1.892-4.777C2.898.578 4.41.25 4.9.25H9.21c.675 0 1.665.591 1.665 1.314V8.5l-4.07 4.212-.003.002a.939.939 0 0 1-1.327.018c-.123-.197-.245-.46-.245-.722v-.197l.613-3.022H1.977Z" fill="#BCBFC2"/></svg>
